assetsMobile/icons/phone.svg

<?xml version="1.0" encoding="UTF-8"?>
<svg xmlns="http://www.w3.org/2000/svg" xmlns:xlink="http://www.w3.org/1999/xlink" width="90px" height="90px" viewBox="0 0 90 90" version="1.1">
<g id="surface1">
<path style=" stroke:none;fill-rule:nonzero;fill:rgb(77.254902%,4.705882%,16.078431%);fill-opacity:1;" d="M 90 45 C 90 69.851562 69.851562 90 45 90 C 20.148438 90 0 69.851562 0 45 C 0 20.148438 20.148438 0 45 0 C 69.851562 0 90 20.148438 90 45 Z M 90 45 "/>
<path style=" stroke:none;fill-rule:nonzero;fill:rgb(98.039216%,97.254902%,96.862745%);fill-opacity:1;" d="M 67.5 54.300781 C 62.601562 54.300781 58 53.199219 53.800781 51.199219 C 53.101562 50.898438 52.398438 50.800781 51.601562 51.101562 C 50.898438 51.300781 50.300781 51.898438 50 52.5 L 48 56.699219 C 41.898438 53.199219 36.898438 48.199219 33.398438 42.101562 L 37.601562 40.101562 C 38.300781 39.800781 38.800781 39.199219 39 38.5 C 39.199219 37.800781 39.199219 37 38.898438 36.300781 C 36.800781 32 35.800781 27.398438 35.800781 22.601562 C 35.800781 21.101562 34.5 19.800781 33 19.800781 L 22.5 19.800781 C 21 19.800781 19.699219 21.101562 19.699219 22.601562 C 19.699219 49 41.101562 70.398438 67.5 70.398438 C 69 70.398438 70.300781 69.101562 70.300781 67.601562 L 70.300781 57.101562 C 70.300781 55.601562 69 54.300781 67.5 54.300781 Z M 67.5 54.300781 "/>
</g>
</svg>

<?xml version="1.0" encoding="utf-8"?>
<!-- Generator: Adobe Illustrator 24.0.2, SVG Export Plug-In . SVG Version: 6.00 Build 0)  -->
<svg version="1.1" id="Capa_1" xmlns="http://www.w3.org/2000/svg" xmlns:xlink="http://www.w3.org/1999/xlink" x="0px" y="0px"
	 viewBox="0 0 90 90" style="enable-background:new 0 0 90 90;" xml:space="preserve">
<style type="text/css">
	.st0{fill:#C50C29;}
	.st1{fill:#FAF8F7;}
</style>
<circle class="st0" cx="45" cy="45" r="45"/>
<path class="st1" d="M67.5,54.3c-4.9,0-9.5-1.1-13.7-3.1c-0.7-0.3-1.4-0.4-2.2-0.1c-0.7,0.2-1.3,0.8-1.6,1.4l-2,4.2
	c-6.1-3.5-11.1-8.5-14.6-14.6l4.2-2c0.7-0.3,1.2-0.9,1.4-1.6c0.2-0.7,0.2-1.5-0.1-2.2c-2.1-4.3-3.1-8.9-3.1-13.7
	c0-1.5-1.3-2.8-2.8-2.8H22.5c-1.5,0-2.8,1.3-2.8,2.8c0,26.4,21.4,47.8,47.8,47.8c1.5,0,2.8-1.3,2.8-2.8V57.1
	C70.3,55.6,69,54.3,67.5,54.3z"/>
</svg>
